X:1
T:======== Last time ========
L:1/8
Q:1/4=180
M:9/8
K:A
"F#m""^======== Last time ========" F2 c BAF F2 E |"D" F2 c BAc fec |"E" B3 BAB c2 A |"B" B3 BAB cBA |
"F#m" F2 c BAF F2 E |"D" F2 c BAc fec |"E" B3 BAB c2 A |"B" B3 BAB cef |
"D" a3 fec fec |"E" B3 BAB cef |"Bm" a3 baf afe |"C#m" fec Bce fec |
"D" a2 f fec fec |"E" B3 BAB cef |"Bm" a3 baf afe |"C#m" fec fec BAB |
"F#m" f z f z z f z z f |z z"F#m" f z z f z z z |"F#" f8 z | z z"F#" f ff z z z z |]
